X: 2299
T: the JOLLY CLAM DIGGERS
R: Reel.
%R: reel
B: James Kerr "Merry Melodies" v.2 p.33 #299
Z: 2016 John Chambers <jc:trillian.mit.edu>
M: C
L: 1/8
K: D
(3(uABc) |\
vd2(FG) A2 (3(def) | gfed feBc |\
d2FG A2AB |  AFEF D2 (3(ABc) |\
d2(FG) A2 (3(def) | gfed feBc |\
d2FG A2de | faef d2 :|
|: (3(efg |\
a)fbf afdf | gfed (cd) (3(efg) |\
afbf afdf | agec d2 (3(efg) |\
afbf afdf | gfed fdBc |\
d2FG A2de | faef d2 :|
